src/icons/svgs/16/thumbs-up.svg

<svg width="16" height="16" viewBox="0 0 16 16" fill="none" xmlns="http://www.w3.org/2000/svg">
<path d="M4.5 13.1188V7.11875C4.5 6.64545 4.10816 6.28571 3.625 6.28571H1.875C1.39184 6.28571 1 6.66955 1 7.11875V13.0946C1 13.5679 1.39184 13.9277 1.875 13.9277H3.625C4.10898 13.9759 4.5 13.6143 4.5 13.1188ZM15 7.14554C15 6.43571 14.4127 5.86036 13.6875 5.86036H9.68164C10.3043 4.84491 10.6255 3.69393 10.6255 3.28839C10.625 2.65679 10.1191 2 9.27148 2C7.54527 2 8.5507 4.03973 6.31289 5.79286L5.86719 6.14107C5.54453 6.39554 5.38047 6.76786 5.37773 7.14286L5.375 11.4286C5.375 11.833 5.5695 12.2142 5.9 12.4569L6.83352 13.1423C7.58984 13.7 8.51133 14 9.45742 14H11.0625C11.7877 14 12.375 13.4249 12.375 12.7148C12.375 12.6175 12.3619 12.5235 12.3409 12.4322C12.8672 12.2643 13.25 11.7875 13.25 11.2143C13.25 10.9692 13.1763 10.7426 13.0548 10.5479C13.6629 10.4375 14.125 9.91518 14.125 9.28839C14.125 8.95357 13.9912 8.65143 13.7772 8.42268C14.4586 8.37768 15 7.82589 15 7.14554Z" fill="black"/>
</svg>

<svg width="16" height="16" viewBox="0 0 16 16" xmlns="http://www.w3.org/2000/svg">
    <path d="M4.5 13.119v-6c0-.474-.392-.833-.875-.833h-1.75c-.483 0-.875.384-.875.833v5.976c0 .473.392.833.875.833h1.75c.484.048.875-.314.875-.81zM15 7.146c0-.71-.587-1.286-1.313-1.286H9.683c.622-1.015.944-2.166.944-2.572C10.625 2.657 10.119 2 9.27 2c-1.726 0-.72 2.04-2.958 3.793l-.446.348a1.28 1.28 0 0 0-.49 1.002l-.002 4.286c0 .404.194.785.525 1.028l.934.685A4.423 4.423 0 0 0 9.457 14h1.605c.726 0 1.313-.575 1.313-1.285a1.26 1.26 0 0 0-.034-.283c.526-.168.909-.645.909-1.218 0-.245-.074-.471-.195-.666a1.291 1.291 0 0 0 1.07-1.26c0-.334-.134-.637-.348-.865C14.46 8.378 15 7.826 15 7.146z"/>
</svg>
